frontend/public/svg/interface/speaker.svg

<svg width="144" height="175" viewBox="0 0 144 175" fill="none" xmlns="http://www.w3.org/2000/svg">
<g clip-path="url(#clip0)">
<path d="M2.71621 83.5558C2.59951 83.6072 2.49984 83.6905 2.4289 83.7966C2.35795 83.902 2.31872 84.0262 2.31583 84.1531C2.21919 88.2353 2.1264 92.3189 2.03756 96.4031C1.82891 105.833 1.61248 115.584 1.31933 125.171C1.02806 134.135 2.12843 143.091 4.58107 151.718C7.67635 162.72 14.6626 169.089 25.9388 171.187C30.8869 172.016 35.8758 172.581 40.8842 172.878C42.6581 173.015 44.4319 173.151 46.2051 173.312C56.8515 174.277 67.33 174.575 78.185 174.575C84.7117 174.575 91.3748 174.467 98.2869 174.334C103.654 174.305 109.011 173.887 114.318 173.085C126.37 171.08 134.371 164.237 138.098 152.755C140.725 144.659 141.478 136.442 142.137 127.31C142.477 122.561 142.852 117.042 142.961 111.625L143.039 107.9C143.234 98.842 143.433 89.4753 143.275 80.2621C143.112 70.7639 142.661 61.1134 142.226 51.7818C142.118 49.4944 142.013 47.2066 141.908 44.9188C141.856 43.7478 141.816 42.5684 141.778 41.3909C141.73 37.2063 141.398 33.0299 140.782 28.8905C138.105 13.3949 125.861 1.80725 111.007 0.711065L110.758 0.692641C108.763 0.545612 106.7 0.394043 104.658 0.394043H104.632C93.2007 0.399247 81.7691 0.412095 70.3376 0.432479C58.7472 0.449394 47.1574 0.462443 35.5679 0.47155C28.3106 0.474803 21.3504 2.40369 14.2882 6.36818C12.4527 7.3617 10.8191 8.68994 9.47165 10.2845C5.12572 15.7434 2.73112 22.5338 2.35217 30.468C2.17667 34.1456 2.33464 37.8844 2.48674 41.5021C2.58359 43.7927 2.68174 46.1601 2.69669 48.4813C2.74609 56.8904 2.73572 65.4424 2.72597 73.7129C2.7212 76.9937 2.71794 80.2744 2.71621 83.5558ZM12.4584 69.8766C12.3694 66.9582 12.2776 63.9405 12.2919 60.9792C12.303 58.7516 12.5241 56.4727 12.7379 54.2693C12.8523 53.0944 12.9661 51.9195 13.0512 50.7446C13.1123 49.8891 13.1507 49.0325 13.1884 48.1751C13.2423 46.9488 13.2982 45.6808 13.4289 44.4512C13.5914 42.9257 13.7292 41.3935 13.8676 39.8614C14.1581 35.7728 14.683 31.7042 15.44 27.6759C17.0331 20.0435 24.5127 13.7716 32.47 13.3969C41.5973 12.9676 50.6596 12.6982 59.4229 12.4379C62.9914 12.3319 66.4837 12.2284 69.8689 12.1165H80.8734C89.952 12.1165 98.5632 12.1165 107.174 12.1165H107.183C111.202 12.0678 115.17 13.0162 118.733 14.8769C125.509 18.4205 129.588 24.0035 130.856 31.4706C131.517 35.7246 131.886 40.0189 131.961 44.3235L132.185 51.8878C132.623 66.5639 133.076 81.7389 133.185 96.662C133.232 103.196 132.822 109.854 132.426 116.294C132.27 118.844 132.112 121.395 131.982 123.945C131.653 130.369 131.281 137.275 130.786 144.25C130.434 149.223 129.345 155.53 124.01 160.182C121.547 162.273 118.545 163.628 115.348 164.09C111.122 164.891 106.842 165.369 102.543 165.522L100.555 165.555C89.614 165.751 78.3001 165.946 67.2052 165.532C54.7962 165.067 41.5882 164.394 28.5264 161.766C27.4607 161.559 26.4071 161.293 25.3707 160.97C20.5366 159.423 17.4992 156.399 16.0841 151.725C13.1682 142.091 11.8546 133.143 12.0671 124.371C12.4409 108.993 12.5351 93.7377 12.6268 78.9844C12.6424 75.945 12.5488 72.8613 12.4584 69.8766Z" fill="black"/>
<path d="M49.1573 147.302C57.1048 150.88 64.5668 152.673 71.9686 152.788H71.979C72.003 152.788 72.0271 152.786 72.0511 152.784C73.0371 152.677 74.0284 152.596 75.0203 152.515C77.2589 152.38 79.4865 152.1 81.6893 151.677C88.8348 150.144 94.0744 147.749 98.1811 144.137C102.585 140.374 106.095 135.675 108.458 130.384C114.524 116.332 114.906 104.482 109.657 93.1002C108.103 89.6802 105.846 86.6272 103.033 84.1407C97.2795 79.0319 90.2732 75.7368 80.984 73.7708C76.6979 72.8197 72.2234 73.214 68.1699 74.9002C66.4767 75.6282 64.729 76.2195 62.9424 76.6697C53.6331 78.9083 46.2458 83.9111 40.9841 91.5421C39.1703 94.2556 37.6353 97.1454 36.4022 100.168C33.9017 106.023 31.1497 113.82 32.0642 122.165C33.4188 134.514 39.0101 142.736 49.1573 147.302ZM42.4284 114.085C43.4039 108.69 45.3297 103.511 48.1159 98.7906C51.7868 92.3983 57.5824 87.4983 64.4926 84.9435C66.0776 84.4374 67.7253 84.1563 69.3881 84.1082C70.168 84.0431 70.9728 83.982 71.7593 83.876C76.15 83.9267 80.607 84.8251 86.2003 86.7872C90.2894 88.2926 93.9626 90.7491 96.9162 93.9544C97.7833 94.9985 98.4665 96.1826 98.9364 97.4563C102.474 105.497 101.387 113.655 99.8574 120.577C98.9136 125.385 96.8258 129.895 93.7715 133.725C90.4058 137.874 85.9117 140.447 80.0331 141.596C70.0732 143.539 60.096 141.712 50.3805 136.167C46.0463 133.695 44.3551 129.455 42.8711 124.962C41.8318 121.811 41.6867 118.254 42.4284 114.085Z" fill="black"/>
<path d="M72.2319 58.5851C73.8965 58.5768 75.5553 58.3706 77.1719 57.9714C85.9696 55.8519 91.1202 50.4425 92.9174 41.4343C94.1362 35.3268 92.0595 30.4151 86.5676 26.42C81.3514 22.6233 75.5306 22.7348 70.5243 23.3477C61.4742 24.4536 54.0434 33.4312 53.9543 43.3697C53.8506 44.8007 54.0491 46.2376 54.5372 47.5867C55.0253 48.9356 55.7919 50.1666 56.787 51.1993C61.7478 56.1728 66.7485 58.5858 72.2319 58.5851ZM63.1108 40.5725C63.3351 37.7038 64.5899 35.0135 66.6432 32.9993H68.4996C71.2413 32.9993 73.801 32.9992 76.3646 33.0031C76.5238 33.0023 76.6824 33.0242 76.8358 33.0682C79.6666 33.897 81.2753 34.9065 81.8993 36.246C82.4967 37.5296 82.2731 39.2707 81.1954 41.7246C80.5207 43.2022 79.5002 44.4955 78.2203 45.4952C76.9411 46.4948 75.4396 47.1711 73.8439 47.4675C72.1467 47.8077 70.3924 47.7279 68.7336 47.2347C67.0748 46.7414 65.5617 45.8501 64.3257 44.6379C63.3312 43.6842 62.9679 42.4695 63.1128 40.5725H63.1108Z" fill="black"/>
</g>
<defs>
<clipPath id="clip0">
<rect width="143" height="175" fill="white" transform="translate(0.777344)"/>
</clipPath>
</defs>
</svg>

<svg xmlns="http://www.w3.org/2000/svg" width="144" height="175" fill="none" viewBox="0 0 144 175"><g fill="#000" clip-path="url(#a)"><path d="M2.716 83.556a.67.67 0 0 0-.4.597q-.146 6.123-.278 12.25c-.21 9.43-.426 19.181-.719 28.768a86.8 86.8 0 0 0 3.262 26.547c3.095 11.002 10.082 17.371 21.358 19.469 4.948.829 9.937 1.394 14.945 1.691 1.774.137 3.548.273 5.321.434 10.647.965 21.125 1.263 31.98 1.263 6.527 0 13.19-.108 20.102-.241a111 111 0 0 0 16.031-1.249c12.052-2.005 20.053-8.848 23.78-20.33 2.627-8.096 3.38-16.313 4.039-25.445.34-4.749.715-10.268.824-15.685l.078-3.725c.195-9.058.394-18.425.236-27.638-.163-9.498-.614-19.149-1.049-28.48q-.161-3.431-.318-6.863c-.052-1.171-.092-2.35-.13-3.528a92 92 0 0 0-.996-12.5C138.105 13.394 125.861 1.806 111.007.71l-.249-.018c-1.995-.147-4.058-.299-6.1-.299h-.026Q87.485.402 70.338.432q-17.385.025-34.77.04C28.31.475 21.35 2.404 14.288 6.368a16.7 16.7 0 0 0-4.816 3.916c-4.346 5.46-6.74 12.25-7.12 20.184-.175 3.678-.017 7.416.135 11.034.097 2.29.195 4.658.21 6.98.05 8.408.039 16.96.029 25.23q-.007 4.922-.01 9.844m9.742-13.68c-.089-2.918-.18-5.936-.166-8.897.011-2.227.232-4.506.446-6.71.114-1.175.228-2.35.313-3.524.061-.856.1-1.712.137-2.57.054-1.226.11-2.494.24-3.724.163-1.525.301-3.057.44-4.59.29-4.088.815-8.157 1.572-12.185 1.593-7.632 9.073-13.904 17.03-14.28 9.127-.428 18.19-.698 26.953-.958 3.568-.106 7.06-.21 10.446-.322h37.314a24.3 24.3 0 0 1 11.55 2.76c6.776 3.545 10.855 9.128 12.123 16.595a94 94 0 0 1 1.105 12.853l.224 7.564c.438 14.676.891 29.85 1 44.774.047 6.534-.363 13.192-.759 19.632-.156 2.55-.314 5.101-.444 7.651-.329 6.424-.701 13.33-1.196 20.305-.352 4.973-1.441 11.28-6.776 15.932a17.2 17.2 0 0 1-8.662 3.908 85 85 0 0 1-12.805 1.432l-1.988.033c-10.941.196-22.255.391-33.35-.023-12.409-.465-25.617-1.138-38.679-3.766a30 30 0 0 1-3.155-.796c-4.834-1.547-7.872-4.571-9.287-9.245-2.916-9.634-4.23-18.582-4.017-27.354.374-15.378.468-30.633.56-45.387.015-3.039-.078-6.123-.169-9.107"/><path d="M49.157 147.302c7.948 3.578 15.41 5.371 22.812 5.486h.01l.072-.004c.986-.107 1.977-.188 2.97-.269a52 52 0 0 0 6.668-.838c7.146-1.533 12.385-3.928 16.492-7.54a39 39 0 0 0 10.277-13.753c6.066-14.052 6.448-25.902 1.199-37.284a26.7 26.7 0 0 0-6.624-8.96c-5.754-5.108-12.76-8.403-22.049-10.37A21.33 21.33 0 0 0 68.17 74.9a35 35 0 0 1-5.228 1.77c-9.309 2.238-16.696 7.241-21.958 14.872a48.5 48.5 0 0 0-4.582 8.626c-2.5 5.855-5.252 13.652-4.338 21.997 1.355 12.349 6.946 20.571 17.093 25.137m-6.729-33.217a46.3 46.3 0 0 1 5.688-15.294 31.47 31.47 0 0 1 16.377-13.847 17.8 17.8 0 0 1 4.895-.836c.78-.065 1.585-.126 2.371-.232 4.391.05 8.848.95 14.441 2.911a27.5 27.5 0 0 1 10.716 7.167 12 12 0 0 1 2.02 3.502c3.538 8.041 2.451 16.199.921 23.121a30.5 30.5 0 0 1-6.085 13.148c-3.366 4.149-7.86 6.722-13.739 7.871-9.96 1.943-19.937.116-29.653-5.429-4.334-2.472-6.025-6.712-7.509-11.205-1.04-3.151-1.184-6.708-.443-10.877m29.804-55.5a21 21 0 0 0 4.94-.614c8.798-2.12 13.948-7.528 15.745-16.537 1.22-6.107-.858-11.019-6.35-15.014-5.216-3.797-11.036-3.685-16.043-3.072-9.05 1.106-16.48 10.083-16.57 20.022a10.22 10.22 0 0 0 2.833 7.83c4.96 4.973 9.962 7.386 15.445 7.385M63.11 40.572A11.9 11.9 0 0 1 66.643 33H68.5c2.741 0 5.301 0 7.865.004q.24 0 .47.065c2.832.829 4.44 1.839 5.064 3.178.598 1.284.374 3.025-.704 5.479a10.12 10.12 0 0 1-7.351 5.743 10.61 10.61 0 0 1-9.518-2.83c-.995-.954-1.358-2.169-1.213-4.065z"/></g><defs><clipPath id="a"><path fill="#fff" d="M.777 0h143v175h-143z"/></clipPath></defs></svg>
